X:1
T:Midsummer night song
T:Dance
T:bewerkt voor 2 basblokfluiten
T:Bela Bartok
T:Ganassi
C:Bela Bartok
Z:Ganassi
%%score 1 2
L:1/8
Q:1/2=80
M:2/2
K:G
V:1 bass+8 nm="Blokfluit" snm="B."
V:2 bass+8 nm="Blokfluit" snm="B."
V:1
!p! D,4 D,2 B,,2 | C,2 C,2 E,2 E,2 | C,2 A,,2 C,2 A,,2 | B,,2 B,,2 D,2 D,2 | B,,2 G,,2 B,,2 G,,2 | %5
 A,,2 A,,2 C,4 | B,,2 B,,2 A,,2 A,,2 | G,,2 G,,2 G,,4 |!f! A,2 F,2 A,2 F,2 | G,2 G,2 B,2 B,2 | %10
 G,2 E,2 G,2 E,2 | F,2 F,2 A,2 A,2 | F,2 D,2 F,2 D,2 | E,2 E,2 G,4 | F,2 F,2 E,2 E,2 | %15
 D,2 D,2 D,4 |!p! D,2 B,,2 D,2 B,,2 | C,2 C,2 E,2 E,2 | C,2 A,,2 C,2 A,,2 | B,,2 B,,2 D,2 D,2 | %20
 B,,2 G,,2 B,,2 G,,2 | A,,2 A,,2 C,4 | B,,2 B,,2 A,,2 A,,2 | G,,2 G,,2 G,,4 |] %24
V:2
!p! A,,2 z2 G,4 | E,4 C,4 | B,,2 z2 F,4 | D,4 B,,4 | G,,2 z2 E,4 | C,4 A,,2 B,,C, | D,8- | %7
 D,2 E,F, G,4 |!f! F,2 z2 ^D,4 | E,4 G,4 | E,2 z2 A,,4 | D,4 F,4 | D,2 z2 G,,4 | C,4 B,,4 | %14
 ^A,,4 ^C,4- | C,4 B,,2 ^C,2 | D,2 z2!p! ^D,4 | E,4 G,4 | z4 _E,4 | D,4 =F,4 | z4 D,4 | C,4 _E,4- | %22
 E,2 D,2 _E,2 =F,2 | G,4 G,,4 |] %24

